icons/op-arrow-left1-24.svg

<svg width="24" height="24" viewBox="0 0 24 24" fill="none" xmlns="http://www.w3.org/2000/svg">
<path d="M4.21875 12.6827C4.1875 12.6498 4.1875 12.6169 4.15625 12.584C4.15625 12.584 4.125 12.5511 4.125 12.5182C4.125 12.4853 4.09375 12.4853 4.09375 12.4524V12.4195C4.09375 12.3866 4.0625 12.3537 4.0625 12.3537C4.0625 12.3208 4.03125 12.2879 4.03125 12.255V12.1563C4.03125 12.1234 4.03125 12.1234 4 12.0905V11.9918V11.8931C4.03125 11.8602 4.03125 11.8273 4.03125 11.7944V11.7286C4.03125 11.6957 4.0625 11.6627 4.0625 11.6298C4.0625 11.5969 4.09375 11.564 4.09375 11.564V11.5311C4.09375 11.4982 4.125 11.4653 4.125 11.4653C4.125 11.4324 4.15625 11.3995 4.15625 11.3995C4.1875 11.3666 4.1875 11.3337 4.21875 11.3008C4.21875 11.2679 4.25 11.2679 4.25 11.235L4.3125 11.1692L4.34375 11.1363L9.8125 5.34548C10.2812 4.88484 11.0312 4.88484 11.4688 5.34548C11.9375 5.83901 11.9375 6.62867 11.4688 7.08931L8 10.7744H18.8438C19.25 10.7744 19.5938 10.9718 19.8125 11.3008C19.9375 11.4982 20 11.7286 20 11.9918C20 12.3208 19.875 12.6498 19.6562 12.8472C19.4375 13.0776 19.1562 13.2092 18.8438 13.2092H8L11.4688 16.8942C11.9375 17.3549 11.9375 18.1445 11.4688 18.6381C11.25 18.8684 10.9688 19 10.6562 19C10.3438 19 10.0625 18.8684 9.8125 18.6381L4.34375 12.8472L4.3125 12.8143C4.3125 12.7814 4.28125 12.7814 4.25 12.7485C4.25 12.7156 4.21875 12.7156 4.21875 12.6827Z" fill="black"/>
</svg>

<svg xmlns="http://www.w3.org/2000/svg" width="24" height="24" viewBox="0 0 24 24"><path d="M4.219 12.683c-.031-.033-.031-.066-.063-.099 0 0-.031-.033-.031-.066s-.031-.033-.031-.066v-.033c0-.032-.032-.065-.032-.065 0-.033-.031-.066-.031-.099v-.099c0-.033 0-.033-.031-.065v-.198c.031-.033.031-.066.031-.099v-.065c0-.033.031-.066.031-.099s.032-.066.032-.066v-.033c0-.033.031-.066.031-.066 0-.033.031-.066.031-.066.032-.032.032-.065.063-.098 0-.033.031-.033.031-.066l.062-.066.032-.033 5.468-5.791c.469-.46 1.219-.46 1.657 0 .469.494.469 1.284 0 1.744L8 10.774h10.844c.406 0 .75.198.968.527.126.197.188.428.188.691 0 .329-.125.658-.344.855-.218.231-.5.362-.812.362H8l3.469 3.685c.469.461.469 1.251 0 1.744-.219.23-.5.362-.813.362-.312 0-.594-.132-.844-.362l-5.468-5.791-.032-.033c0-.033-.031-.033-.062-.066 0-.032-.031-.032-.031-.065Z"/></svg>
